**kern	**kern	**kern	**kern
*staff3	*staff4	*staff1	*staff2
*clefF4	*clefF4	*clefG2	*clefG2
*k[f#c#]	*k[f#c#]	*k[f#c#]	*k[f#c#]
*M2/4	*M2/4	*M2/4	*M2/4
*D:	*D:	*D:	*D:
=-	=-	=-	=-
4F#	4D	[2A	2r
(8GL	4AA	.	.
8EJ)	.	.	.
=65	=65	=65	=65
(8EL	4FF#	2A]	2r
8DJ)	.	.	.
(8DL	4r	.	.
8C#J)	.	.	.
=66	=66	=66	=66
(8C#L	4GG	[2d	2r
8BBJ)	.	.	.
(8BBL	4GG	.	.
8DJ)	.	.	.
=67	=67	=67	=67
8DL	2FF#	2d]	2r
8AAJ	.	.	.
4AA	.	.	.
=68	=68	=68	=68
8r	4.DD	4a	2r
16FF#LL	.	.	.
16AAJJ	.	.	.
[4D	.	4dd	.
.	8FF#	.	.
=69	=69	=69	=69
8DL]	4.AA	4ee	2r
16C#L	.	.	.
16EJJ	.	.	.
[4G	.	4aa	.
.	8C#	.	.
=70	=70	=70	=70
8GL]	4.D	2ddd	2r
16F#L	.	.	.
16EJJ	.	.	.
8F#L	.	.	.
8G#J	8BB	.	.
=71	=71	=71	=71
4A	8C#L	4aa	2r
.	8BBJ	.	.
4r	8AA	4r	.
.	8r	.	.
=72:|!|:	=72:|!|:	=72:|!|:	=72:|!|:
*-	*-	*-	*-
